X:1
T:The Foggy Dew
M:4/4
L:1/8
K:D
F-A| B2A-F B2A-F| E2 F2 A,2 B,C|D-FE-D B,3 A,| B,4 z2F-A| B2A-F B2A-F|\
 E2E-F A,2B,-C|D-FE-D B,2B,-A,| B,6 z A,| D3 F A2 GF| E E3 F2D-E| F2d-cB-AF-A|\
 B4 z2 FA| B2 AF B2 AF| E F3 A,2B,-C|D-F ED B, B,2- A,| B,6||
